svg/ricky/side/emotion/rofl.svg

<?xml version="1.0" encoding="UTF-8"?>
<svg width="500px" height="600px" viewBox="0 0 500 600" version="1.1" xmlns="http://www.w3.org/2000/svg" xmlns:xlink="http://www.w3.org/1999/xlink">
    <title>rofl</title>
    <defs>
        <polygon id="path-1" points="0.000362517026 0.084 173.375333 0.084 173.375333 192.102015 0.000362517026 192.102015"></polygon>
    </defs>
    <g id="rofl" stroke="none" stroke-width="1" fill="none" fill-rule="evenodd">
        <g id="roflsideface" transform="translate(154.000000, 64.000000)">
            <g id="face" transform="translate(0.000000, 0.916000)">
                <mask id="mask-2" fill="white">
                    <use xlink:href="#path-1"></use>
                </mask>
                <g id="Clip-5"></g>
                <path d="M171.0484,137.3859 C170.9034,137.5149 170.7914,137.6879 170.7624,137.9199 C169.5324,147.5449 162.4284,154.9569 155.6854,161.4389 C155.3624,161.3509 154.9874,161.4199 154.7374,161.7529 C150.6494,167.2129 148.0454,174.3569 142.1714,178.2569 C135.6434,182.5909 127.3674,181.2159 120.2964,179.1599 C116.3594,178.0159 112.5024,176.5929 108.6294,175.2519 C104.2834,173.7479 99.9394,172.2429 95.5934,170.7399 C87.9344,168.0879 80.0714,165.5149 73.3784,160.8089 C67.2354,156.4899 62.1394,149.8729 61.3944,142.2619 C61.3824,142.1729 61.3774,142.0839 61.3614,141.9949 C61.3174,141.4609 61.2914,140.9229 61.2904,140.3799 C61.2894,139.5659 60.3224,139.3819 59.8724,139.8209 C59.3974,139.9429 58.9964,140.4619 59.3064,141.0249 C59.5344,141.4389 59.6714,141.8779 59.7484,142.3229 C59.7654,142.5039 59.7814,142.6849 59.8034,142.8639 C59.8694,144.2729 59.2884,145.7079 58.2984,146.7449 C57.4494,147.6329 56.3584,148.1419 55.1934,148.3689 C54.8834,148.1629 54.5224,148.0429 54.1364,148.0699 C50.5764,148.3219 47.9104,145.0959 45.7254,142.7269 C42.8614,139.6229 40.1364,136.3869 37.5834,133.0219 C37.3714,132.7409 37.1114,132.5119 36.8264,132.3409 C36.7144,132.1489 36.5934,131.9609 36.4834,131.7669 C36.4774,131.7539 36.4714,131.7409 36.4654,131.7299 C36.4574,131.7139 36.4454,131.7029 36.4384,131.6889 C35.0864,129.2899 33.9884,126.7679 33.5094,124.0379 C33.2804,122.7339 33.2604,121.3619 33.5144,120.0479 C33.6394,119.9319 33.7594,119.7999 33.8644,119.6369 C34.9284,117.9939 36.6934,116.9089 38.5944,116.5359 C39.3824,116.6849 40.1804,116.6429 40.9354,116.4469 C41.3294,116.4939 41.7204,116.5739 42.1034,116.6899 C43.9484,117.2489 45.7144,118.6349 47.1944,119.8439 C48.7974,121.1549 50.1484,122.6169 51.0014,124.5219 C51.3434,125.2829 52.2754,125.5909 53.0784,125.4599 C53.3594,125.5239 53.6354,125.5319 53.8974,125.4909 C54.0604,125.4899 54.2134,125.4489 54.3444,125.3649 C54.8964,125.1449 55.3394,124.6929 55.5374,124.0629 C55.8914,122.9389 56.0104,121.8259 55.9534,120.7339 C56.0114,120.5409 56.0694,120.3499 56.1274,120.1569 C56.2284,119.8239 56.0624,119.4419 55.7714,119.2519 C55.5674,118.1719 55.2134,117.1139 54.7684,116.0819 C53.4954,109.0589 50.8124,102.3309 46.8594,96.3719 L48.4814,96.9899 C49.7574,97.4769 51.0674,98.1199 52.4234,98.3399 C53.5474,98.5229 54.5974,98.2619 55.4134,97.6389 C56.1264,97.9639 56.9754,97.9949 57.6544,97.5309 C59.3024,96.4039 60.7304,95.0759 61.9414,93.5309 C62.3574,93.0809 62.7224,92.5839 63.0084,92.0319 C63.1164,91.8239 63.1874,91.6189 63.2394,91.4179 C64.3074,89.7129 65.1594,87.8719 65.7714,85.9539 C68.4624,83.5629 69.2834,79.6619 69.2134,76.0009 C71.9844,79.3199 76.0614,81.4739 80.3884,81.9489 C85.9854,82.5659 91.3794,79.9259 94.7524,75.4969 C95.7054,74.2459 96.4514,72.8709 97.0064,71.4229 C97.2964,70.9069 97.5734,70.3849 97.8364,69.8559 C100.0564,73.5319 103.5774,76.4919 107.8264,77.3909 C112.8884,78.4609 118.0034,76.0769 120.5134,71.5449 C121.0584,70.5619 121.4304,69.5039 121.6354,68.4209 C121.9754,70.3099 122.5734,71.9479 124.0664,73.4409 C124.7104,74.0849 125.5284,74.6559 126.4204,75.1059 C127.9134,76.4769 129.7774,77.3779 132.1524,77.4499 C135.0274,77.5379 137.4764,75.7819 138.8614,73.3479 C139.9164,71.4949 140.3034,69.4359 140.4234,67.3429 C142.5004,70.4139 146.1234,72.4679 149.8864,72.2169 C153.7974,71.9559 157.1804,69.4299 158.8374,66.0089 C159.6524,66.4509 160.5354,66.7559 161.4604,66.9009 C161.5424,66.9399 161.6194,66.9879 161.7034,67.0239 C157.4134,72.4069 157.7184,80.3679 159.0824,86.7709 C160.6864,94.2959 164.1274,101.2539 166.9404,108.3659 C168.5624,112.4669 169.9904,116.6519 170.7914,120.9959 C170.8084,121.0859 170.8474,121.1519 170.8824,121.2199 C171.4694,126.5889 171.5234,132.0049 171.0484,137.3859 M117.8824,188.8349 C117.1194,189.6029 115.9014,189.9819 114.8754,190.2389 C113.7784,190.5129 112.5174,190.6419 111.4574,190.1569 C110.3374,189.6439 109.8644,188.4459 109.1064,187.5539 C108.7644,187.1539 108.3694,186.8629 107.9384,186.5719 C107.2824,186.1279 107.3524,185.6849 107.3304,184.9359 C107.2494,182.1359 107.1684,179.3349 107.0874,176.5349 C110.5704,177.7419 114.0604,178.9279 117.5674,180.0449 C117.5604,180.1429 117.5664,180.2449 117.6024,180.3579 C118.0744,181.8179 118.4024,183.3169 118.5224,184.8479 C118.6194,186.1059 118.8594,187.8539 117.8824,188.8349 M106.4554,3.6919 C105.7524,4.2209 104.9314,4.6619 104.0514,4.9889 C104.8064,4.4849 105.6124,4.0489 106.4554,3.6919 M136.7944,73.4409 C136.8194,73.4129 136.8434,73.3809 136.8684,73.3539 C135.8134,74.7409 134.3264,75.6979 132.5434,75.7819 C134.1464,75.4079 135.6634,74.6719 136.7944,73.4409 M143.5784,68.4159 C142.5954,67.5849 141.7744,66.5579 141.1934,65.4049 C141.9154,66.4679 142.7144,67.4769 143.5784,68.4159 M171.5004,116.7339 C167.9884,103.8099 159.5954,92.0199 159.8554,78.3009 C159.9284,74.4409 160.8554,70.4299 163.4794,67.5049 C163.9124,67.5579 164.3514,67.5719 164.7854,67.5309 C168.1544,67.2119 170.7354,64.4909 171.9514,61.4929 C173.4154,57.8859 173.4804,53.5769 173.3084,49.7399 C173.1834,46.9779 172.7314,44.1559 171.6814,41.5809 C171.2984,40.2199 170.5814,39.0019 169.6524,37.9809 C168.0094,35.8019 165.7904,34.0499 163.2034,33.2119 C163.1914,33.1789 163.1754,33.1469 163.1634,33.1139 C163.6024,30.9639 163.9004,28.6319 162.8144,26.6339 C162.4214,25.9109 161.8804,25.3109 161.2424,24.8699 C160.7514,22.8709 159.9434,21.0879 158.5404,19.6219 C158.1394,18.7569 157.5724,17.9689 156.8194,17.3269 C155.5444,16.2409 153.8754,15.7079 152.2404,15.7999 C151.7434,14.6939 151.0344,13.6469 150.0824,12.6939 C146.8424,9.4529 140.6904,8.1849 136.7524,10.9739 C136.4594,11.1819 136.1644,11.3959 135.8674,11.6099 C135.1264,8.8609 133.1884,6.5939 130.7024,5.1849 C130.5084,5.0309 130.3214,4.8689 130.1134,4.7279 C128.0404,3.3169 125.3344,2.7479 122.9074,3.3419 C122.3384,2.7839 121.7064,2.2929 121.0284,1.8699 C120.5284,1.2759 119.8554,0.8029 119.0984,0.5489 C118.2874,0.2779 117.4344,0.2119 116.5784,0.2259 C114.6384,-0.0761 112.6144,0.0949 110.7384,0.8179 C110.5514,0.8489 110.3614,0.8679 110.1754,0.9029 C106.6944,1.5449 103.1604,3.0479 100.7714,5.6169 C99.3164,5.6349 97.9234,5.2839 96.8584,4.4499 C93.6814,1.9629 90.3704,0.9649 87.0854,1.5909 C83.6394,1.9059 81.1684,4.2479 78.7224,6.5529 C77.8334,7.2779 76.9444,8.0019 76.0554,8.7269 C73.5074,7.2979 70.9734,5.8089 68.3444,4.5479 C65.8214,3.3379 62.9884,2.4959 60.2254,3.3969 C54.9224,5.1239 52.9684,10.6539 51.7074,15.5959 C47.7114,13.1979 42.7214,12.5509 38.2414,13.8839 C36.7454,14.3279 35.3524,15.0189 34.0694,15.8689 C31.8064,16.8919 29.7674,18.4469 28.1494,20.6259 C25.7324,23.8799 24.7344,27.7929 25.1944,31.5389 C24.4954,31.8209 23.6744,31.9739 23.1374,32.1849 C22.0384,32.6149 20.9804,33.1419 19.9864,33.7819 C17.4974,35.3829 15.3884,37.6019 13.9204,40.1779 C12.6104,41.7549 11.5764,43.5879 10.9544,45.7559 C9.4904,50.8549 10.7254,55.7419 13.5084,59.8039 C10.0694,60.6649 6.8514,62.3929 4.4484,65.0269 C2.6184,67.0319 1.4074,69.4799 0.9064,72.0739 C-0.5766,76.0229 -0.0616,80.6739 3.2624,83.7259 C3.4384,83.8879 3.6224,84.0319 3.8054,84.1809 C0.4354,86.0269 -0.4946,90.9599 0.2314,94.5029 C0.9474,98.0079 3.1174,101.1139 6.0924,103.0259 C5.6354,103.5479 5.2254,104.1269 4.8664,104.7669 C4.8514,104.7889 4.8324,104.8089 4.8174,104.8319 C4.4974,105.3059 4.2814,105.8209 4.1374,106.3549 C2.4114,111.0709 3.8604,117.3849 8.7484,119.7739 C9.8904,120.3309 10.0044,120.1529 10.4614,120.8639 C11.5084,122.4949 12.7794,123.6699 14.1594,124.4929 C13.1804,125.6229 12.6874,127.2039 13.0824,128.9819 C13.0934,129.0309 13.1074,129.0779 13.1174,129.1259 C13.0824,129.4279 13.0444,129.7299 13.0314,130.0319 C12.8634,133.8679 14.5134,137.4439 16.4184,140.6709 C18.4944,144.1889 20.5874,147.8239 23.0114,151.1149 C25.1954,154.0779 28.1284,156.7399 31.9204,157.2339 C34.9434,157.6259 38.1964,156.1819 39.5594,153.4699 C40.2084,154.0279 40.9264,154.5109 41.6874,154.9089 C42.6954,156.3309 44.2084,157.5359 45.4234,158.4799 C47.6724,160.2269 50.2614,161.6009 53.0584,162.2099 C58.1564,163.3219 63.8294,161.6729 66.8694,157.2849 C67.6614,158.1469 68.4904,158.9719 69.3634,159.7389 C75.6904,165.2929 83.7284,168.3429 91.5654,171.0819 C96.1834,172.6969 100.7984,174.3469 105.4244,175.9619 C105.5034,178.7089 105.5824,181.4569 105.6624,184.2039 C105.6954,185.3649 105.5314,186.7179 106.4984,187.5569 C106.8854,187.8929 107.3584,188.1029 107.7174,188.4719 C108.1144,188.8789 108.4004,189.3749 108.7294,189.8349 C110.1134,191.7649 112.1294,192.3599 114.4294,192.0049 C116.4154,191.6989 118.9964,190.8189 119.8474,188.8209 C120.4004,187.5229 120.2714,185.9369 120.1454,184.5659 C120.0214,183.2239 119.7644,181.9039 119.3934,180.6109 C126.1774,182.6399 133.7524,184.0209 140.4234,181.0849 C147.7284,177.8699 150.8514,170.2849 155.1184,164.0469 C155.2694,164.0249 155.4204,163.9719 155.5584,163.8389 C162.2944,157.4089 169.4274,150.2619 171.7904,141.0539 C172.0844,140.9509 172.3384,140.7109 172.3854,140.3279 C173.3344,132.6649 173.1944,124.9329 172.0224,117.3019 C171.9694,116.9539 171.7524,116.7839 171.5004,116.7339" id="Fill-4" fill="#231F20" mask="url(#mask-2)"></path>
            </g>
            <path d="M139.3579,130.4562 C137.3159,127.7392 135.2229,125.0602 133.1699,122.3522 C131.1829,119.7342 128.7849,116.1842 130.6529,112.8622 C131.1719,111.9372 129.7509,111.1062 129.2309,112.0312 C127.5729,114.9792 128.5149,118.3592 130.2279,121.0502 C132.3119,124.3222 134.9109,127.3242 137.2639,130.4052 C138.6079,132.1652 143.2739,138.4042 138.6789,139.1682 C136.7329,139.4912 134.7039,138.6722 132.9209,137.9912 C131.0619,137.2812 129.2619,136.4372 127.5109,135.4942 C126.5789,134.9912 125.7459,136.4132 126.6799,136.9162 C129.4589,138.4122 132.4849,139.8642 135.5729,140.5842 C137.9919,141.1472 141.4719,141.0122 142.1289,138.0252 C142.7369,135.2632 140.9289,132.5492 139.3579,130.4562" id="nose" fill="#231F20"></path>
            <g id="eyes" transform="translate(82.989428, 81.577408)" fill="#231F20">
                <path d="M13.7395724,3.90029164 C8.48557242,5.21929164 3.70057242,8.19129164 0.206572422,12.3332916 C-0.473427578,13.1372916 0.685572422,14.3082916 1.37057242,13.4972916 C4.69657242,9.55529164 9.17457242,6.74529164 14.1765724,5.48829164 C15.2045724,5.22929164 14.7685724,3.64129164 13.7395724,3.90029164" id="Fill-9"></path>
                <path d="M72.7903724,4.56429164 C68.7183724,1.05629164 63.2563724,0.353291643 58.0853724,0.00229164325 C57.0273724,-0.0697083567 57.0323724,1.57829164 58.0853724,1.64929164 C62.7733724,1.96629164 67.9203724,2.53829164 71.6253724,5.72829164 C72.4253724,6.41729164 73.5953724,5.25729164 72.7903724,4.56429164" id="Fill-11"></path>
                <path d="M29.9016724,20.6883916 C25.6186724,19.3233916 21.0646724,18.8943916 16.6046724,19.4593916 C16.0636724,19.5273916 15.6106724,19.8693916 15.6046724,20.4593916 C15.5986724,20.9473916 16.0686724,21.5263916 16.6046724,21.4593916 C19.9266724,21.0393916 23.2656724,21.1783916 26.5176724,21.8693916 C22.6066724,23.5563916 18.8466724,25.5703916 15.3006724,27.9433916 C14.2366724,28.6543916 15.2366724,30.3883916 16.3096724,29.6693916 C20.5646724,26.8243916 25.1196724,24.4453916 29.9016724,22.6173916 C30.8056724,22.2713916 30.8916724,21.0033916 29.9016724,20.6883916" id="Fill-13"></path>
                <path d="M71.2513724,16.6678916 C67.0323724,13.8968916 61.3993724,13.8878916 57.0653724,16.3138916 C58.7593724,14.7918916 60.4503724,13.2708916 62.1433724,11.7478916 C62.5443724,11.3868916 62.5113724,10.7018916 62.1433724,10.3338916 C61.7433724,9.93589164 61.1313724,9.97289164 60.7293724,10.3338916 C58.3523724,12.4718916 55.9763724,14.6088916 53.5993724,16.7458916 C53.1973724,17.1068916 53.2313724,17.7928916 53.5993724,18.1598916 C53.7963724,18.3558916 54.0443724,18.4448916 54.2923724,18.4428916 C53.6713724,19.3338916 54.9503724,20.5288916 55.8223724,19.6888916 C59.6323724,16.0218916 65.8393724,15.5018916 70.2413724,18.3958916 C71.3203724,19.1048916 72.3233724,17.3728916 71.2513724,16.6678916" id="Fill-15"></path>
            </g>
            <path d="M152.3804,152.1124 C139.4434,154.3134 126.2694,154.8834 113.1884,153.8444 C112.6764,153.8044 112.3774,154.1004 112.2774,154.4754 C112.1924,154.4604 112.1064,154.4484 112.0254,154.4564 C110.6924,152.1614 109.5524,149.7554 108.6434,147.2604 C112.2874,146.6024 116.1224,147.3284 119.7924,147.3684 C123.8874,147.4134 127.9774,147.0944 132.0314,146.5514 C139.7684,145.5164 147.3524,143.6594 154.9044,141.7314 C155.0044,145.3964 153.9694,148.8634 152.3804,152.1124 M146.0434,161.8334 C145.9104,162.0074 145.7744,162.1774 145.6404,162.3504 L145.7534,162.1404 C146.0224,161.7904 146.2314,161.3994 146.4024,160.9954 C147.2504,160.1534 148.0104,159.2264 148.6784,158.2354 C148.6804,158.2364 148.6824,158.2374 148.6834,158.2394 C147.8314,159.4584 146.9464,160.6534 146.0434,161.8334 M137.7544,155.9474 C137.7254,155.9174 137.7034,155.8804 137.6704,155.8544 C138.8564,155.7674 140.0394,155.6684 141.2234,155.5574 C140.0744,155.7644 138.9164,155.8834 137.7544,155.9474 M123.3654,165.3924 C123.4494,165.3454 123.5294,165.2904 123.6094,165.2344 C123.6884,165.2554 123.7574,165.2864 123.8484,165.2884 C124.9224,165.3134 125.9964,165.3014 127.0694,165.2584 C129.4084,165.3214 131.7464,165.2334 134.0714,165.0014 C134.0864,165.0614 134.1064,165.1184 134.1324,165.1754 C130.5574,165.4974 126.9614,165.5714 123.3654,165.3924 M141.1604,167.5914 C135.6474,172.7964 129.1704,171.1454 123.7034,167.4054 C130.0864,167.6944 136.4754,167.1964 142.7394,165.9424 C142.2334,166.5124 141.7134,167.0684 141.1604,167.5914 M156.0694,139.3714 C147.8934,141.4644 139.6764,143.5794 131.2894,144.6494 C127.1604,145.1764 122.9944,145.4544 118.8304,145.3514 C115.2214,145.2624 111.5674,144.6614 107.9964,145.3504 C107.9654,145.2534 107.9294,145.1574 107.8994,145.0584 C107.5224,143.8324 105.5904,144.3544 105.9714,145.5904 C107.5994,150.8814 110.1334,155.8564 113.4944,160.2574 C116.7684,164.5394 120.8134,168.5844 125.6974,170.9854 C130.4024,173.2994 135.9184,173.8684 140.4164,170.7604 C142.5514,169.2884 144.2564,167.3294 145.8554,165.3094 C147.6494,163.0444 149.4164,160.7464 151.0334,158.3504 C154.4724,153.2584 157.2524,147.4434 156.8774,141.1654 C157.7314,140.6414 157.2084,139.0794 156.0694,139.3714" id="mouth" fill="#231F20"></path>
        </g>
    </g>
</svg>

<svg width="500" height="600" xmlns="http://www.w3.org/2000/svg" xmlns:xlink="http://www.w3.org/1999/xlink"><defs><path id="a" d="M0 .084h173.375v192.018H0z"/></defs><g fill="none" fill-rule="evenodd"><g transform="translate(154 64.916)"><mask id="b" fill="#fff"><use xlink:href="#a"/></mask><path d="M171.048 137.386a.837.837 0 00-.286.534c-1.23 9.625-8.334 17.037-15.077 23.519-.323-.088-.698-.02-.948.314-4.088 5.46-6.692 12.604-12.566 16.504-6.528 4.334-14.804 2.959-21.875.903-3.937-1.144-7.794-2.567-11.667-3.908-4.346-1.504-8.69-3.01-13.036-4.512-7.659-2.652-15.522-5.225-22.215-9.931-6.143-4.32-11.239-10.936-11.984-18.547-.012-.09-.017-.178-.033-.267a20.1 20.1 0 01-.07-1.615c-.002-.814-.969-.998-1.419-.56-.475.123-.876.642-.566 1.205.228.414.365.853.442 1.298.017.18.033.362.055.54.066 1.41-.515 2.845-1.505 3.882-.849.888-1.94 1.397-3.105 1.624a1.688 1.688 0 00-1.057-.3c-3.56.253-6.226-2.973-8.41-5.342a131.83 131.83 0 01-8.143-9.705 2.67 2.67 0 00-.757-.681c-.112-.192-.233-.38-.343-.574a.644.644 0 00-.018-.037c-.008-.016-.02-.027-.027-.041-1.352-2.4-2.45-4.921-2.929-7.651-.229-1.304-.249-2.676.005-3.99.125-.116.245-.248.35-.411 1.064-1.643 2.83-2.728 4.73-3.101a5.352 5.352 0 002.341-.09 6.81 6.81 0 011.168.244c1.845.559 3.611 1.945 5.091 3.154 1.603 1.31 2.954 2.773 3.807 4.678.342.76 1.274 1.069 2.077.938.281.064.557.072.82.03a.828.828 0 00.446-.125c.552-.22.995-.672 1.193-1.302a9.362 9.362 0 00.416-3.33l.174-.576c.101-.333-.065-.715-.356-.905-.204-1.08-.558-2.138-1.003-3.17a52.681 52.681 0 00-7.909-19.71l1.622.618c1.276.487 2.586 1.13 3.942 1.35 1.124.183 2.174-.078 2.99-.701.713.325 1.562.356 2.241-.108a19.093 19.093 0 004.287-4 6.85 6.85 0 001.067-1.5 2.8 2.8 0 00.231-.613 24.114 24.114 0 002.532-5.464c2.691-2.391 3.512-6.292 3.442-9.953 2.771 3.319 6.848 5.473 11.175 5.948 5.597.617 10.991-2.023 14.364-6.452a16.372 16.372 0 002.254-4.074c.29-.516.567-1.038.83-1.567 2.22 3.676 5.741 6.636 9.99 7.535 5.062 1.07 10.177-1.314 12.687-5.846.545-.983.917-2.041 1.122-3.124.34 1.889.938 3.527 2.431 5.02.644.644 1.462 1.215 2.354 1.665 1.493 1.37 3.357 2.272 5.732 2.344 2.875.088 5.324-1.668 6.71-4.102 1.054-1.853 1.441-3.912 1.561-6.005 2.077 3.07 5.7 5.125 9.463 4.874 3.911-.261 7.294-2.787 8.951-6.208a8.14 8.14 0 002.623.892c.082.039.16.087.243.123-4.29 5.383-3.985 13.344-2.62 19.747 1.603 7.525 5.044 14.483 7.857 21.595 1.622 4.1 3.05 8.286 3.851 12.63.017.09.056.156.091.224a82.23 82.23 0 01.166 16.166m-53.166 51.449c-.763.768-1.98 1.147-3.007 1.404-1.097.274-2.358.403-3.418-.082-1.12-.513-1.593-1.711-2.35-2.603-.343-.4-.738-.691-1.169-.982-.656-.444-.586-.887-.608-1.636l-.243-8.401a438.008 438.008 0 0010.48 3.51.811.811 0 00.035.313c.472 1.46.8 2.959.92 4.49.097 1.258.337 3.006-.64 3.987M106.455 3.692a9.546 9.546 0 01-2.404 1.297c.755-.504 1.561-.94 2.404-1.297m30.34 69.749c.024-.028.048-.06.073-.087-1.055 1.387-2.542 2.344-4.325 2.428 1.603-.374 3.12-1.11 4.251-2.341m6.784-5.025a9.645 9.645 0 01-2.385-3.011 26.153 26.153 0 002.385 3.01m27.922 48.319c-3.512-12.924-11.905-24.714-11.645-38.433.073-3.86 1-7.871 3.624-10.796.433.053.872.067 1.306.026 3.37-.32 5.95-3.04 7.166-6.038 1.464-3.607 1.53-7.916 1.357-11.753-.125-2.762-.577-5.584-1.627-8.16-.383-1.36-1.1-2.578-2.029-3.6-1.643-2.178-3.862-3.93-6.449-4.768-.012-.033-.028-.065-.04-.098.44-2.15.737-4.482-.349-6.48a5.09 5.09 0 00-1.572-1.764c-.49-2-1.299-3.782-2.702-5.248a6.68 6.68 0 00-1.72-2.295 6.538 6.538 0 00-4.58-1.527 10.423 10.423 0 00-2.158-3.106c-3.24-3.241-9.392-4.51-13.33-1.72-.293.208-.588.422-.885.636-.74-2.75-2.679-5.016-5.165-6.425-.194-.154-.38-.316-.589-.457-2.073-1.411-4.779-1.98-7.206-1.386a10.98 10.98 0 00-1.879-1.472 4.362 4.362 0 00-1.93-1.321c-.81-.271-1.664-.337-2.52-.323-1.94-.302-3.964-.131-5.84.592-.187.03-.377.05-.563.085-3.48.642-7.015 2.145-9.404 4.714-1.455.018-2.848-.333-3.913-1.167-3.177-2.487-6.488-3.485-9.773-2.86-3.446.316-5.917 2.658-8.363 4.963l-2.667 2.174c-2.548-1.43-5.082-2.918-7.71-4.18-2.524-1.21-5.357-2.051-8.12-1.15-5.303 1.727-7.257 7.257-8.518 12.199-3.996-2.398-8.986-3.045-13.466-1.712-1.496.444-2.889 1.135-4.172 1.985a14.968 14.968 0 00-5.92 4.757c-2.417 3.254-3.415 7.167-2.955 10.913-.699.282-1.52.435-2.057.646-1.099.43-2.157.957-3.15 1.597a18.612 18.612 0 00-6.067 6.396 15.191 15.191 0 00-2.966 5.578c-1.464 5.099-.229 9.986 2.554 14.048-3.439.86-6.657 2.589-9.06 5.223a14.553 14.553 0 00-3.542 7.047c-1.483 3.949-.968 8.6 2.356 11.652.176.162.36.306.543.455-3.37 1.846-4.3 6.779-3.574 10.322.716 3.505 2.886 6.61 5.861 8.523a10.233 10.233 0 00-1.226 1.74c-.015.023-.034.043-.049.066-.32.474-.536.989-.68 1.523-1.726 4.716-.277 11.03 4.611 13.419 1.142.557 1.256.379 1.713 1.09 1.047 1.63 2.318 2.806 3.698 3.629-.979 1.13-1.472 2.71-1.077 4.489.011.049.025.096.035.144-.035.302-.073.604-.086.906-.168 3.836 1.482 7.412 3.387 10.639 2.076 3.518 4.17 7.153 6.593 10.444 2.184 2.963 5.117 5.625 8.91 6.119 3.022.392 6.275-1.052 7.638-3.764a11.301 11.301 0 002.128 1.439c1.008 1.422 2.521 2.627 3.736 3.57 2.25 1.748 4.838 3.122 7.635 3.73 5.098 1.113 10.771-.536 13.811-4.924a32.793 32.793 0 002.494 2.454c6.327 5.554 14.365 8.604 22.202 11.343 4.618 1.615 9.233 3.265 13.86 4.88.078 2.747.157 5.495.237 8.242.033 1.16-.13 2.514.836 3.353.387.336.86.546 1.22.915.396.407.682.903 1.011 1.363 1.384 1.93 3.4 2.525 5.7 2.17 1.986-.306 4.567-1.186 5.418-3.184.553-1.298.424-2.884.298-4.255a21.502 21.502 0 00-.752-3.955c6.784 2.029 14.36 3.41 21.03.474 7.305-3.215 10.428-10.8 14.695-17.038a.763.763 0 00.44-.208c6.736-6.43 13.87-13.577 16.232-22.785a.865.865 0 00.595-.726c.95-7.663.81-15.395-.363-23.026-.053-.348-.27-.518-.522-.568" fill="#231F20" mask="url(#b)"/></g><path d="M293.358 194.456c-2.042-2.717-4.135-5.396-6.188-8.104-1.987-2.618-4.385-6.168-2.517-9.49.519-.925-.902-1.756-1.422-.83-1.658 2.947-.716 6.327.997 9.018 2.084 3.272 4.683 6.274 7.036 9.355 1.344 1.76 6.01 8 1.415 8.763-1.946.323-3.975-.496-5.758-1.177a46.13 46.13 0 01-5.41-2.497c-.932-.503-1.765.92-.831 1.422 2.779 1.496 5.805 2.948 8.893 3.668 2.419.563 5.899.428 6.556-2.559.608-2.762-1.2-5.476-2.771-7.569m-42.629-44.978a26.1 26.1 0 00-13.533 8.433c-.68.804.479 1.975 1.164 1.164a24.62 24.62 0 0112.806-8.01c1.028-.258.592-1.846-.437-1.587m59.051.664c-4.072-3.508-9.534-4.211-14.705-4.562-1.058-.072-1.053 1.576 0 1.647 4.688.317 9.835.889 13.54 4.079.8.689 1.97-.471 1.165-1.164m-42.889 16.124a31.033 31.033 0 00-13.297-1.23c-.54.069-.994.41-1 1-.006.489.464 1.068 1 1a29.69 29.69 0 019.913.41c-3.91 1.688-7.67 3.702-11.217 6.075-1.064.71-.064 2.445 1.01 1.726a68.449 68.449 0 0113.591-7.052c.904-.346.99-1.614 0-1.93m41.349-4.02c-4.218-2.77-9.851-2.78-14.185-.354l5.078-4.566c.4-.36.368-1.046 0-1.414-.4-.398-1.012-.36-1.414 0l-7.13 6.412c-.402.361-.368 1.047 0 1.414a.96.96 0 00.693.283c-.621.891.658 2.086 1.53 1.246 3.81-3.667 10.017-4.187 14.419-1.293 1.079.71 2.082-1.023 1.01-1.728" fill="#231F20"/><path d="M306.38 216.112a158.787 158.787 0 01-39.192 1.732c-.512-.04-.81.256-.91.631a.945.945 0 00-.253-.019 45.04 45.04 0 01-3.382-7.196c3.644-.658 7.48.068 11.15.108 4.094.045 8.184-.274 12.238-.817 7.737-1.035 15.321-2.892 22.873-4.82.1 3.665-.935 7.132-2.524 10.381m-6.337 9.721c-.133.174-.269.344-.403.517l.113-.21c.27-.35.478-.74.65-1.145a18.3 18.3 0 002.275-2.76l.005.004a103.28 103.28 0 01-2.64 3.594m-8.289-5.886c-.029-.03-.05-.067-.084-.093a175.95 175.95 0 003.553-.297 28.322 28.322 0 01-3.469.39m-14.389 9.445c.084-.047.164-.102.244-.158.08.021.148.052.24.054a50.87 50.87 0 003.22-.03 55.47 55.47 0 007.002-.257c.015.06.035.117.061.174a77.207 77.207 0 01-10.767.217m17.795 2.2c-5.513 5.204-11.99 3.553-17.457-.187a78.802 78.802 0 0019.036-1.463 26.159 26.159 0 01-1.579 1.65m14.91-28.22c-8.177 2.092-16.394 4.207-24.78 5.277-4.13.527-8.296.805-12.46.702-3.609-.089-7.263-.69-10.834 0-.03-.098-.067-.194-.097-.293-.377-1.226-2.309-.704-1.928.532a46.856 46.856 0 007.523 14.667c3.274 4.282 7.32 8.327 12.203 10.728 4.705 2.314 10.221 2.883 14.72-.225 2.134-1.472 3.84-3.43 5.438-5.45 1.794-2.266 3.561-4.564 5.178-6.96 3.44-5.092 6.22-10.907 5.844-17.185.854-.524.331-2.086-.808-1.794" fill="#231F20"/></g></svg>
